Simply-Blue-Circles/scalable/apps/elisa.svg

<svg xmlns="http://www.w3.org/2000/svg" width="48" height="48" viewBox="0 0 12.7 12.7"><path d="M6.34.07a6.29 6.29 0 0 0-6.29 6.3 6.29 6.29 0 0 0 6.3 6.28 6.29 6.29 0 0 0 6.28-6.29A6.29 6.29 0 0 0 6.34.07zM6.32 1l.01.01a5.4 5.4 0 0 1 5.4 5.4 5.4 5.4 0 0 1-5.4 5.41 5.4 5.4 0 0 1-5.41-5.4A5.4 5.4 0 0 1 6.32 1z" fill="#2c89a0"/><path d="M2.78 3.47c-.37 0-.66.27-.66.6v4.49c0 .32.3.59.66.59h.08l.81-1.5h5.36l.8 1.5h.1c.36 0 .65-.27.65-.6V4.07c0-.32-.3-.59-.66-.59H2.78v-.01zm.486.498h6.168a.51.51 0 0 1 .512.512V6.87a.51.51 0 0 1-.512.512H3.266a.51.51 0 0 1-.512-.512V4.48a.51.51 0 0 1 .512-.512zM4.6 5.46a.58.58 0 0 0-.59.58.58.58 0 0 0 .59.58.58.58 0 0 0 .58-.58.58.58 0 0 0-.58-.58zm3.5 0a.58.58 0 0 0-.58.58.58.58 0 0 0 .58.58.58.58 0 0 0 .59-.58.58.58 0 0 0-.59-.58zm-2.77.18v.88h2.04v-.88H5.33zM3.78 7.77l-.74 1.38h6.62l-.74-1.38H3.78zm.87.31a.34.34 0 0 1 .34.34.34.34 0 0 1-.34.34.34.34 0 0 1-.34-.34.34.34 0 0 1 .34-.34zm3.4 0a.34.34 0 0 1 .34.34.34.34 0 0 1-.34.34.34.34 0 0 1-.34-.34.34.34 0 0 1 .34-.34z" fill="#2c89a0"/><path d="M3.266 3.958a.511.511 0 0 0-.512.513v2.388c0 .284.229.512.512.512h6.168a.511.511 0 0 0 .512-.512V4.471a.511.511 0 0 0-.512-.513zM4.6 5.14v.01h3.5a.88.88 0 0 1 .88.87.88.88 0 0 1-.88.88H4.6a.88.88 0 0 1-.88-.88.88.88 0 0 1 .88-.88z" opacity=".75" fill="#80ff80" fill-rule="evenodd"/></svg>

<?xml version="1.0" encoding="UTF-8" standalone="no"?>
<svg
   xmlns:dc="http://purl.org/dc/elements/1.1/"
   xmlns:cc="http://creativecommons.org/ns#"
   xmlns:rdf="http://www.w3.org/1999/02/22-rdf-syntax-ns#"
   xmlns:svg="http://www.w3.org/2000/svg"
   xmlns="http://www.w3.org/2000/svg"
   xmlns:sodipodi="http://sodipodi.sourceforge.net/DTD/sodipodi-0.dtd"
   xmlns:inkscape="http://www.inkscape.org/namespaces/inkscape"
   width="48"
   height="48"
   viewBox="0 0 12.7 12.7"
   version="1.1"
   id="svg8"
   sodipodi:docname="elisa.svg"
   inkscape:version="0.92.4 (5da689c313, 2019-01-14)">
  <metadata
     id="metadata14">
    <rdf:RDF>
      <cc:Work
         rdf:about="">
        <dc:format>image/svg+xml</dc:format>
        <dc:type
           rdf:resource="http://purl.org/dc/dcmitype/StillImage" />
        <dc:title></dc:title>
      </cc:Work>
    </rdf:RDF>
  </metadata>
  <defs
     id="defs12" />
  <sodipodi:namedview
     pagecolor="#ffffff"
     bordercolor="#666666"
     borderopacity="1"
     objecttolerance="10"
     gridtolerance="10"
     guidetolerance="10"
     inkscape:pageopacity="0"
     inkscape:pageshadow="2"
     inkscape:window-width="1087"
     inkscape:window-height="480"
     id="namedview10"
     showgrid="false"
     inkscape:zoom="4.9166667"
     inkscape:cx="2.1355932"
     inkscape:cy="24"
     inkscape:window-x="0"
     inkscape:window-y="25"
     inkscape:window-maximized="0"
     inkscape:current-layer="svg8" />
  <path
     d="M 6.34,0.07 A 6.29,6.29 0 0 0 0.05,6.37 6.29,6.29 0 0 0 6.35,12.65 6.29,6.29 0 0 0 12.63,6.36 6.29,6.29 0 0 0 6.34,0.07 Z M 6.32,1 6.33,1.01 a 5.4,5.4 0 0 1 5.4,5.4 5.4,5.4 0 0 1 -5.4,5.41 A 5.4,5.4 0 0 1 0.92,6.42 5.4,5.4 0 0 1 6.32,1 Z"
     id="path2"
     inkscape:connector-curvature="0"
     style="fill:#2c89a0" />
  <path
     d="m 2.78,3.47 c -0.37,0 -0.66,0.27 -0.66,0.6 v 4.49 c 0,0.32 0.3,0.59 0.66,0.59 h 0.08 l 0.81,-1.5 h 5.36 l 0.8,1.5 h 0.1 c 0.36,0 0.65,-0.27 0.65,-0.6 V 4.07 c 0,-0.32 -0.3,-0.59 -0.66,-0.59 H 2.78 Z M 3.266,3.968 H 9.434 A 0.51,0.51 0 0 1 9.946,4.48 V 6.87 A 0.51,0.51 0 0 1 9.434,7.382 H 3.266 A 0.51,0.51 0 0 1 2.754,6.87 V 4.48 A 0.51,0.51 0 0 1 3.266,3.968 Z M 4.6,5.46 A 0.58,0.58 0 0 0 4.01,6.04 0.58,0.58 0 0 0 4.6,6.62 0.58,0.58 0 0 0 5.18,6.04 0.58,0.58 0 0 0 4.6,5.46 Z m 3.5,0 A 0.58,0.58 0 0 0 7.52,6.04 0.58,0.58 0 0 0 8.1,6.62 0.58,0.58 0 0 0 8.69,6.04 0.58,0.58 0 0 0 8.1,5.46 Z M 5.33,5.64 V 6.52 H 7.37 V 5.64 Z M 3.78,7.77 3.04,9.15 H 9.66 L 8.92,7.77 Z M 4.65,8.08 A 0.34,0.34 0 0 1 4.99,8.42 0.34,0.34 0 0 1 4.65,8.76 0.34,0.34 0 0 1 4.31,8.42 0.34,0.34 0 0 1 4.65,8.08 Z m 3.4,0 A 0.34,0.34 0 0 1 8.39,8.42 0.34,0.34 0 0 1 8.05,8.76 0.34,0.34 0 0 1 7.71,8.42 0.34,0.34 0 0 1 8.05,8.08 Z"
     id="path4"
     inkscape:connector-curvature="0"
     style="fill:#2c89a0" />
  <path
     d="M 3.266,3.958 A 0.511,0.511 0 0 0 2.754,4.471 v 2.388 c 0,0.284 0.229,0.512 0.512,0.512 H 9.434 A 0.511,0.511 0 0 0 9.946,6.859 V 4.471 A 0.511,0.511 0 0 0 9.434,3.958 Z M 4.6,5.14 V 5.15 H 8.1 A 0.88,0.88 0 0 1 8.98,6.02 0.88,0.88 0 0 1 8.1,6.9 H 4.6 A 0.88,0.88 0 0 1 3.72,6.02 0.88,0.88 0 0 1 4.6,5.14 Z"
     id="path6"
     inkscape:connector-curvature="0"
     style="opacity:0.75;fill:#80ff80;fill-rule:evenodd" />
</svg>
